!!!COM:	Anonymous
!!!OPR:	Missa [Bergerette savoysienne]
!!!ONM:	2
!!!OTL:	Gloria
!!!AGN:	Mass; Gloria
!!!SCT:	Ano1001b
!!!SCA:	Ano1001b
!!!SMS:	Jena 32
!!!folio-OPR: 250v-264r
!!!voices-OPR:	4
!!!voices:	4
**kern	**kern	**kern	**kern
*staff4	*staff3	*staff2	*staff1
*Ivox	*Ivox	*Ivox	*Ivox
*I"Bassus	*I"Tenor	*I"Altus	*I"Superius
*I'B	*I'T	*I'A	*I'S
*>[A,B]	*>[A,B]	*>[A,B]	*>[A,B]
*>A	*>A	*>A	*>A
*clefF4	*clefGv2	*clefGv2	*clefG2
*k[]	*k[]	*k[]	*k[]
*M2/1	*M2/1	*M2/1	*M2/1
*met(C|)	*met(C|)	*met(C|)	*met(C|)
!!section: Et in terra pax
!!!OMD: Et in terra pax
=1-	=1-	=1-	=1-
!	!LO:TX:X=-40:Z=8:t=Twofold c.f. statement in T (signaled by a repeat sign)	!	!
0r	0r	1c	0r
.	.	1c	.
=2	=2	=2	=2
0r	0r	2d	0r
.	.	2d	.
.	.	1e	.
=3	=3	=3	=3
0r	0r	2r	1cc
.	.	2.a	.
.	.	.	1cc
.	.	4g	.
.	.	4f	.
.	.	4e	.
=4	=4	=4	=4
0r	0r	1f	2dd
.	.	.	2dd
.	.	2.e	1ee
.	.	4f	.
=5	=5	=5	=5
0r	0r	2g	1ee
.	.	1a	.
.	.	.	2ee
.	.	4g	[2ee
.	.	4f	.
=6	=6	=6	=6
0r	0r	2g	4ee]
.	.	.	4dd
.	.	1e	1cc
.	.	4d	4b
.	.	4c	4a
=7	=7	=7	=7
0r	0r	1g	1b
.	.	2r	1r
.	.	[2d	.
=8	=8	=8	=8
0r	0r	4d]	1ff
.	.	4e	.
.	.	4f	.
.	.	4g	.
.	.	2a	1ff
.	.	2b-	.
=9	=9	=9	=9
0r	0r	2g	1ee
.	.	2a	.
.	.	2f	[1dd
.	.	[2g	.
=10	=10	=10	=10
0r	0r	4g]	2dd]
.	.	4f	.
.	.	4e	4cc
.	.	4d	4b
.	.	2e	2cc
.	.	[2f	[2dd
=11	=11	=11	=11
0r	0r	4f]	4dd]
.	.	4e	4cc
.	.	4d	1cc
.	.	4c	.
.	.	1d	.
.	.	.	2b
=12	=12	=12	=12
1C	1c	1c	2cc
.	.	.	2.ee
2C	2c	1G	.
.	.	.	4dd
2C	2c	.	4cc
.	.	.	4b
=13	=13	=13	=13
1F	1d	2.A	1a
.	.	4B	.
1E	1e	2c	1g
.	.	[2B	.
=14	=14	=14	=14
1A	1e	2B]	1cc
.	.	2A	.
1G	2e	2B	2b
.	[2e	[2g	[2b
=15	=15	=15	=15
1E	4e]	4g]	2b]
.	4d	4f	.
.	1c	1e	4a
.	.	.	4g
1F	.	.	1a
.	4B	2d	.
.	4A	.	.
=16	=16	=16	=16
1E	1B	1e	2.g
.	.	.	4a
2r	2r	2r	2b
2C	[2c	2e	[2cc
=17	=17	=17	=17
1F	4c]	1A	2cc]
.	4d	.	.
.	4e	.	2a
.	4f	.	.
2E	2g	1e	2b
2c	2c	.	2cc
=18	=18	=18	=18
2B	4g	2d	2dd
.	4f	.	.
1c	4e	2c	1ee
.	4d	.	.
.	1c	[1g	.
4B	.	.	4dd
4A	.	.	4cc
=19	=19	=19	=19
1G	0d	2g]	1b
.	.	4f	.
.	.	4e	.
1D	.	2f	1a
.	.	[2d	.
=20	=20	=20	=20
2D	1.f	2d]	2r
1D	.	4c	1a
.	.	4B	.
.	.	1A	.
[2F	4e	.	2a
.	4d	.	.
=21	=21	=21	=21
2F]	2c	2r	2a
4E	2d	1d	4g
4D	.	.	4f
1E	1G	.	1g
.	.	2c	.
=22	=22	=22	=22
2D	1.A	2d	2f
1F	.	2c	1a
.	.	1d	.
4E	2B	.	4g
4D	.	.	4f
=23	=23	=23	=23
2C	1c	2G	2e
1F	.	1A	2.a
.	[1f	.	.
.	.	.	4g
[2D	.	[2a	4f
.	.	.	4e
=24	=24	=24	=24
4D]	2f]	2a]	2d
4E	.	.	.
4F	2f	2a	1dd
4G	.	.	.
1A	1e	1a	.
.	.	.	2cc#i
=25	=25	=25	=25
2B	1.d	2f	1dd
2.G	.	1g	.
.	.	.	2r
4A	.	.	.
2B	4c	2g	2dd
.	4d	.	.
=26	=26	=26	=26
1c	1.c	1g	1.ee
1C	.	1e	.
.	4B	.	4dd
.	4c	.	4cc
=27	=27	=27	=27
1G	1B	1d	4dd
.	.	.	4cc
.	.	.	4b
.	.	.	4a
2E	1c	2r	2.g
2C	.	[2g	.
.	.	.	4a
=28	=28	=28	=28
1G	0d	2g]	2b
.	.	4f	1cc
.	.	4e	.
1G	.	2g	.
.	.	[2G	2b
=29	=29	=29	=29
2C	[0c	2G]	2cc
1F	.	2A	1a
.	.	2F	.
2E	.	2G	2g
=30	=30	=30	=30
1F	0c]	1A	2f
.	.	.	4e
.	.	.	4d
2.C	.	2r	1e
.	.	[2G	.
4D	.	.	.
=31	=31	=31	=31
4E	0r	4G]	0r
4F	.	4A	.
2.G	.	4B	.
.	.	4c	.
.	.	2d	.
4F	.	.	.
4E	.	[2e	.
4D	.	.	.
=32	=32	=32	=32
2G	0r	4e]	0r
.	.	4d	.
2C	.	1c	.
1D	.	.	.
.	.	2B	.
=33	=33	=33	=33
2C	0r	1c	2r
2.c	.	.	1g
.	.	1r	.
4B	.	.	.
2A	.	.	2f
=34	=34	=34	=34
2G	0r	0r	1e
1c	.	.	.
.	.	.	1d
2B	.	.	.
=35	=35	=35	=35
0c	0r	2r	1c
.	.	1g	.
.	.	.	2r
.	.	2e	[2cc
=36	=36	=36	=36
0r	0r	2f	2cc]
.	.	2g	2b
.	.	2a	2a
.	.	[2b	[2dd
=37	=37	=37	=37
0r	0r	4b]	2dd]
.	.	4a	.
.	.	1g	4cc
.	.	.	4b
.	.	.	1a
.	.	2f	.
=38	=38	=38	=38
2r	0r	2g	1g
1G	.	1e	.
.	.	.	1r
2A	.	4d	.
.	.	4c	.
=39	=39	=39	=39
1B	0r	2d	0r
.	.	4c	.
.	.	4B	.
1c	.	2A	.
.	.	2a	.
=40	=40	=40	=40
2B	0r	2g	0r
1A	.	2.f	.
.	.	4e	.
2G	.	[2e	.
=41	=41	=41	=41
1F	0r	2e]	1a
.	.	2d	.
1E	.	2.e	1g
.	.	4d	.
=42	=42	=42	=42
2E	1c	4c	2g
.	.	4B	.
2F	.	2A	2a
2E	2c	2r	2g
[2F	2c	[2A	[2a
=43	=43	=43	=43
2F]	1d	2A]	2a]
2G	.	2G	2b
2.E	1e	2c	2.g
.	.	[2B	.
4F	.	.	4a
=44	=44	=44	=44
2G	1e	2B]	2b
1A	.	1A	1cc
.	2e	.	.
2G	[2e	[2B	2b
=45	=45	=45	=45
1E	4e]	2B]	1g
.	4d	.	.
.	1c	2G	.
1A	.	1c	2a
.	4B	.	2cc
.	4A	.	.
=46	=46	=46	=46
1G	1B	1d	2b
.	.	.	1g
2E	2r	2e	.
[2F	[2c	2c	[2a
=47	=47	=47	=47
2F]	4c]	1f	2a]
.	4d	.	.
4E	4e	.	4g
4D	4f	.	4f
1C	2g	2r	1e
.	2c	2g	.
=48	=48	=48	=48
1r	4g	2e	1c
.	4f	.	.
.	4e	2g	.
.	4d	.	.
1C	1c	2e	1g
.	.	4d	.
.	.	4c	.
=49	=49	=49	=49
1G	0d	1B	1r
2G	.	2B	1g
2G	.	2B	.
=50	=50	=50	=50
2F	1.f	2c	1.a
2F	.	2c	.
1D	.	2d	.
.	4e	4c	[2a
.	4d	4B	.
=51	=51	=51	=51
2r	2c	2A	2a]
2D	2d	2d	2f
2E	1G	2B	2g
2C	.	[2c	[2cc
=52	=52	=52	=52
1F	1.A	4c]	2cc]
.	.	4B	.
.	.	4A	2cc
.	.	4G	.
1D	.	1F	1dd
.	2B	.	.
=53	=53	=53	=53
1C	1c	1G	1ee
1D	[1f	1r	2ff
.	.	.	[2dd
=54	=54	=54	=54
2BB-	2f]	1d	2dd]
2BB-	2f	.	2dd
1C	1e	2.G	2ee
.	.	.	4dd
.	.	4A	4cc
=55	=55	=55	=55
1G	1.d	2B	2b
.	.	2G	1cc
2r	.	1g	.
2G	4c	.	2b
.	4d	.	.
=56	=56	=56	=56
1A	1.c	2r	2cc
.	.	2e	2a
2F	.	1f	2a
2F	4B	.	4g
.	4c	.	4a
=57	=57	=57	=57
1G	1B	1d	2b
.	.	.	1g
1E	1c	1e	.
.	.	.	[2cc
=58	=58	=58	=58
1F	0d	1a	2cc]
.	.	.	4b
.	.	.	4a
1G	.	1g	1b
=59	=59	=59	=59
2.C	[0cl	2.e	[0ccl
4D	.	4f	.
2E	.	2g	.
[2F	.	[2a	.
=60	=60	=60	=60
2F]	0c_	2a]	0cc_
2E	.	1g	.
1F	.	.	.
.	.	2f	.
=61	=61	=61	=61
0Cl	0c]	0gl	0cc]
!!LO:LB:i:g=z
=62||	=62||	=62||	=62||
*>B	*>B	*>B	*>B
*clefF4	*clefGv2	*clefGv2	*clefG2
*k[]	*k[]	*k[]	*k[]
*M2/1	*M2/1	*M2/1	*M2/1
*met(C|)	*met(C|)	*met(C|)	*met(C|)
!!section: Qui tollis
!!!OMD: Qui tollis
1c	1e	1g	1cc
2c	1e	2g	2cc
2c	.	2g	2cc
=63	=63	=63	=63
1B	1d	1g	1dd
1B	[1g	2d	2dd
.	.	[2g	2dd
=64	=64	=64	=64
1c	1g]	4g]	2cc
.	.	4f	.
.	.	4e	1ee
.	.	4d	.
1A	1f#i	2c	.
.	.	2c	4dd
.	.	.	4cc
=65	=65	=65	=65
1G	[0g	1d	2.b
.	.	.	4cc
1r	.	2B	2dd
.	.	[2c	[2ee
=66	=66	=66	=66
0r	0g]	2c]	2ee]
.	.	2B	1dd
.	.	1G	.
.	.	.	[2gg
=67	=67	=67	=67
0r	0a	1c	2gg]
.	.	.	4ff
.	.	.	4ee
.	.	1d	4ff
.	.	.	4ee
.	.	.	4dd
.	.	.	4cc
=68	=68	=68	=68
0r	1g	2G	2b
.	.	1g	1ee
.	1r	.	.
.	.	4f	[2dd
.	.	4e	.
=69	=69	=69	=69
1F	0r	2f	2dd]
.	.	1e	4cc
.	.	.	4b
2F	.	.	1a
2F	.	2d	.
=70	=70	=70	=70
1E	0r	2e	1g
.	.	1d	.
1E	.	.	1r
.	.	2c	.
=71	=71	=71	=71
1F	0r	2d	1r
.	.	1c	.
1D	.	.	2r
.	.	2B	2dd
=72	=72	=72	=72
1C	0r	1c	1ee
1r	.	2r	2ff
.	.	[2c	[2gg
=73	=73	=73	=73
0r	0r	4c]	2gg]
.	.	4d	.
.	.	4e	4ff
.	.	4f	4ee
.	.	2g	2dd
.	.	2a	[2ff
=74	=74	=74	=74
0r	0r	2f	2ff]
.	.	2.g	2ee
.	.	.	2dd
.	.	4f	.
.	.	4e	[2ee
.	.	4d	.
=75	=75	=75	=75
1r	0r	1c	4ee]
.	.	.	4dd
.	.	.	1cc
2r	.	1d	.
2G	.	.	2b
=76	=76	=76	=76
2A	0r	1c	1cc
1c	.	.	.
.	.	2r	1r
2B	.	2g	.
=77	=77	=77	=77
1A	0r	2a	0r
.	.	1cc	.
1G	.	.	.
.	.	2b	.
=78	=78	=78	=78
1.c	0r	1a	0r
.	.	2g	.
2B	.	2g	.
=79	=79	=79	=79
1A	0r	1cc	0r
2G	.	2b	.
[2F	.	[2a	.
=80	=80	=80	=80
4F]	0r	2a]	0r
4G	.	.	.
4A	.	4g	.
4B	.	4f	.
2c	.	2e	.
[2d	.	[2d	.
=81	=81	=81	=81
2d]	0r	2d]	1r
4c	.	1g	.
4B	.	.	.
1A	.	.	1cc
.	.	2f#i	.
=82	=82	=82	=82
0G	0r	0g	2b
.	.	.	1dd
.	.	.	4cc
.	.	.	4b
=83	=83	=83	=83
1r	1.f	1r	1a
1F	.	1c	1a
.	2f	.	.
=84	=84	=84	=84
1F	1f	1c	2a
.	.	.	2a
2C	[1e	2c	1g
2C	.	2c	.
=85	=85	=85	=85
1G	2e]	2B	1g
.	2d	2B	.
1G	[1d	2G	1g
.	.	[2g	.
=86	=86	=86	=86
1A	1d]	2g]	1cc
.	.	4f#i	.
.	.	4e	.
1A	1c	1f#i	1cc
=87	=87	=87	=87
1G	1d	1g	2b
.	.	.	1dd
1D	[1a	2f	.
.	.	4e	4cc
.	.	4d	4b
=88	=88	=88	=88
1F	1a]	2c	2.cc
.	.	2A	.
.	.	.	4dd
1E	[1g	1B	[1ee
=89	=89	=89	=89
1C	1g]	1c	2ee]
.	.	.	4dd
.	.	.	4ee
1D	1f	1A	2ff
.	.	.	4ee
.	.	.	4dd
=90	=90	=90	=90
1A	0e	2r	2cc
.	.	1.a	1dd
2r	.	.	.
2A	.	.	2cc#i
=91	=91	=91	=91
2B-	[0d	2f	2dd
1G	.	2.g	4cc
.	.	.	4b
.	.	.	1a
.	.	4f	.
2F	.	[2d	.
=92	=92	=92	=92
1G	0d]	2d]	2b-i
.	.	4c	1g
.	.	4B	.
1D	.	1A	.
.	.	.	2f
=93	=93	=93	=93
2r	0r	2B	2g
2A	.	2c	2a
2B-i	.	1d	2f
[2G	.	.	[2g
=94	=94	=94	=94
2G]	0r	2e	2g]
2F	.	2f	2a
1G	.	2d	2b-i
.	.	[2g	2g
=95	=95	=95	=95
1D	0r	2g]	1a
.	.	2f	.
2r	.	2g	2r
2A	.	2c	2a
=96	=96	=96	=96
2B-i	0r	1d	2f
1G	.	.	2g
.	.	2B	2b-i
2F	.	2c	[2a
=97	=97	=97	=97
1G	0r	2G	4a]
.	.	.	4g
.	.	2B	1g
1D	.	1A	.
.	.	.	2f#i
=98	=98	=98	=98
2r	1r	2G	1g
1G	.	1g	.
.	2r	.	1r
2F	2d	2a	.
=99	=99	=99	=99
2E	1.e	2g	0r
2C	.	2.a	.
1G	.	.	.
.	.	4g	.
.	2d	[2g	.
=100	=100	=100	=100
1A	1c	2g]	1r
.	.	2f#i	.
1G	1B	1g	2r
.	.	.	2dd
=101	=101	=101	=101
0r	1c	2r	1ee
.	.	1a	.
.	1d	.	1ff
.	.	4g	.
.	.	4f	.
=102	=102	=102	=102
2r	1r	2e	1gg
1G	.	1g	.
.	2r	.	1r
2F	2d	2a	.
=103	=103	=103	=103
2E	1.e	2g	0r
2C	.	2.a	.
1G	.	.	.
.	.	4g	.
.	2d	[2g	.
=104	=104	=104	=104
1A	1c	2g]	1r
.	.	2f#i	.
1G	1B	1g	2r
.	.	.	2dd
=105	=105	=105	=105
0r	1c	2r	1ee
.	.	1a	.
.	1d	.	1ff
.	.	4g	.
.	.	4f	.
=106	=106	=106	=106
[0G	0r	2e	2.gg
.	.	2d	.
.	.	.	4ff
.	.	2g	4ee
.	.	.	4dd
.	.	4f	[2gg
.	.	4e	.
=107	=107	=107	=107
0G]	1.g	1d	2gg]
.	.	.	4ff
.	.	.	4ee
.	.	1r	1dd
.	2f	.	.
=108	=108	=108	=108
0r	2e	0g	2r
.	2d	.	2dd
.	1c	.	2ee
.	.	.	4dd
.	.	.	4cc
=109	=109	=109	=109
0G	1d	1g	2b
.	.	.	1cc
.	1d	1g	.
.	.	.	2b
=110	=110	=110	=110
0C	0c	1g	2cc
.	.	.	2.g
.	.	1g	.
.	.	.	4f
.	.	.	[2e
=111	=111	=111	=111
0r	0G	0g	2e]
.	.	.	4d
.	.	.	4c
.	.	.	1d
=112	=112	=112	=112
1C	1.g	2r	2.c
.	.	2e	.
.	.	.	4d
2C	.	2e	2e
2D	2f	2d	2f
=113	=113	=113	=113
2.E	2e	2c	2.g
.	4d	4B	.
4F	4c	4A	4a
2G	2B	2G	2b
2A	2e	2c	2cc
=114	=114	=114	=114
2B-	4d	1G	2.dd
.	4e	.	.
4A	4f	.	.
4G	4g	.	4ee
2F	2a	2r	2ff
[2c	2g	[2g	[2ee
=115	=115	=115	=115
2c]	2e	2g]	4ee]
.	.	.	4dd
2F	2f	2a	1cc
1G	1d	1g	.
.	.	.	2b
=116	=116	=116	=116
[0Cl	[0cl	0e	[0ccl
=117	=117	=117	=117
0C]	0c]	0gl	0cc]
==	==	==	==
*-	*-	*-	*-
!!!RDF**kern: l=long note in original notation
!!!RDF**kern: i=editorial accidental
!!!ENC:	Jesse Rodin 8/14/2013
!!!END:	2013/08/14/
!!!EED:	Jesse Rodin
!!!EEV:	2013/08/14/
!!!ONB:	Translated from MusicXML and edited on 2013/08/14/ by Craig Sapp
!!muse2ps: T^@{OPR}^u^@{ONM}{. }@{OTL}^C^@{COM}\n@{SMS}, @{folio-OPR}^i2I150v85,85,85,150c180
